X:1
T: Miss Mary Douglass's Favourite
C:T. Wright
R:Jig
Q: 180
K:Bb
M:6/8
L:1/8
F1/2E1/2|D1/2E1/2FF F2B|GEG F2E|D1/2E1/2FF F2e|d3 c2F1/2E1/2|D1/2E1/2FF F2B|GEG Ffe|dcB GBA|B3 B2F1/2E1/2|
D1/2E1/2FF F2B|GEG F2E|D1/2E1/2FF F2e|d3 c2F1/2E1/2|D1/2E1/2FF F2B|GEG Ffe|dcB GBA|B3 B2f|
fgf b2f|d3 B2d|cdc f2c|A3 FGA|B3 GAB|c3 ABc|def fed|cBA GFE|
D1/2E1/2FF F2B|GEG F2E|D1/2E1/2FF F2e|d3 c2F1/2E1/2|D1/2E1/2FF F2B|GEG Ffe|dcB GBA|B3 B2||
